!!!COM: Mozart, Wolfgang Amadeus
!!!CDT: 1756/01/27/-1791/12/05/
!!!CNT: German
!!!OTL: Piano Sonata No. 4 in E-flat major
!!!SCT1: K<sup>1</sup> 282
!!!SCT2: K<sup>6</sup> 189g
!!!OMV: Mvmt. 2
!!!OMD: Menuetto I & II
!!!ODT: 1774///
**kern	**kern	**dynam
*thru	*thru	*thru
*staff2	*staff1	*staff1/2
*clefF4	*clefG2	*clefG2
!! Menuetto II
*k[b-e-a-]	*k[b-e-a-]	*k[b-e-a-]
*E-:	*E-:	*E-:
*M3/4	*M3/4	*M3/4
*MM120	*MM120	*MM120
*>D	*>D	*>D
*clefG2	*	*
(8d/L	8b-'\L	p
8B-/J)	8b-'\J	.
=49	=49	=49
(8e-/L	16bn\LK	f
.	8.cc\J	.
8B-/	.	.
8e-/	4r	.
8B-/)	.	.
(8f/	8dd'\L	p
8B-/J)	8dd'\J	.
=50	=50	=50
(8g/L	(16dd\LK	f
.	8.ee-\J)	.
8B-/	.	.
8g/	4r	.
8B-/)	.	.
(8d/	8ff'\L	p
8B-/J)	8ff'\J	.
=51	=51	=51
(8e-/L	(16ff#\LK	f
.	8.gg\J)	.
8B-/	.	.
8e-/	4r	.
8B-/)	.	.
(8c/	8aan'\L	p
8B-/J)	8aa'\J	.
=52	=52	=52
(8d/L	(16aan\LK	f
.	8.bb-\J)	.
8B-/	.	.
8f/	4r	.
8d/J)	.	.
4B-/	8b-'\L	p
.	8b-'\J	.
*clefF4	*	*
=53	=53	=53
[2.C-\ [2.c-\	(8ee-\L	.
.	8ff\	.
.	8gg-\	.
.	8ff\	.
.	8ee-\	.
.	8dd\J)	.
=54	=54	=54
2.C-\] (2.c-\]	(8ee-\L	p
.	8ff\	.
.	8gg-\	.
.	8ggn\	.
.	8aa-\	.
.	8aan\J	.
=55	=55	=55
4BB-\ 4B-\)	4bb-\)	.
4r	4r	.
(16BB-/LL	(16B-/LL	f
16C-/	16c-/	.
16BB-/	16B-/	.
16AAn/JJ	16An/JJ	.
=56	=56	=56
4BB-/)	4B-/)	.
4r	4r	.
4r	(16b-\LL	p
.	16ccn\	.
.	16b-\	.
.	16an\JJ	.
*clefG2	*	*
=57	=57	=57
*^	*	*
4g/	8e-\L	4b-\)	.
.	8B-\	.	.
4g/	8e-\	8r	.
.	8B-\	16r	.
.	.	(16b-\LK	<
4g/	8e-\	8.ee-\)	.
.	8B-\J	.	.
.	.	16ee-'\Jk	.
=58	=58	=58	=58
4a-/	8f\L	(4ee-\	f
.	8B-\	.	.
4a-/	8f\	4dd\)	.
.	8B-\	.	.
4a-/	8f\	(16b-\LL	p
.	.	16cc\	.
.	8B-\J	16b-\	.
.	.	16an\JJ	.
=59	=59	=59	=59
4g/	8e-\L	4b-\)	.
.	8B-\	.	.
4g/	8e-\	8r	.
.	8B-\	16r	.
.	.	(16b-\LK	<
4g/	8e-\	8.gg\)	.
.	8B-\J	.	.
.	.	16gg'\Jk	.
=60	=60	=60	=60
4f/	8d\L	(4bb-\	f
.	8B-\	.	.
4f/	8d\	4aa-\)	.
.	8B-\	.	.
4f/	8d\	(16aa-\LL	.
.	.	16bb-\	.
.	8B-\J	16aa-\	.
.	.	16ff\JJ	.
*v	*v	*	*
=61	=61	=61
4e-/	16gg\LL	.
.	16aa-\	.
.	16gg\	.
.	16ee-\JJ	.
4r	12bb-\L	.
.	12aa-\	.
.	12gg\J	.
*clefF4	*	*
4GG/ 4G/	12ff\L	.
.	12ee-\	.
.	12dd-\J	.
=62	=62	=62
4AA-\ 4A-\	16cc\LL	.
.	16dd-\	.
.	16cc\	.
.	16a-\JJ)	.
4r	(12ccc\L	.
.	12bb-\	.
.	12aa-\J	.
4B-\ 4d-\	12gg\L	.
.	12ff\	.
.	12een\J	.
=63	=63	=63
*^	*	*
2r	4A-\ 4c\	16ff\LL	.
.	.	16gg\	.
.	.	16ff\)	.
.	.	16cc\JJ	.
.	4r	(12ccc\L	.
.	.	12bb-\	.
.	.	12aa-\J	.
(12e-/L	4An\	12gg\L	.
12f/	.	12ff\	.
12g/J)	.	12ee-\J)	.
=64	=64	=64	=64
(4g/	2B-\	(4ee-\	.
4f/)	.	4ddn\)	.
4r	(8E-\L	(16b-/LL	p
.	.	16cc/	.
.	8B-\J)	16b-/	.
.	.	16g/JJ	.
*v	*v	*	*
=65	=65	=65
(8F\L	4a-'/)	.
8B-\	.	.
8A-\	4f'/	.
8B-\)	.	.
(8A-\	(16dd\LL	f
.	16ee-\	.
8B-\J)	16dd\	.
.	16b-\JJ	.
=66	=66	=66
(8G\L	4ee-\	.
8B-\	.	.
8E-\	4gg\)	.
8B-\)	.	.
(8E-\	(16b-/LL	p
.	16cc/	.
8B-\J)	16b-/	.
.	16g/JJ	.
=67	=67	=67
(8F\L	4a-'/)	.
8B-\	.	.
8A-\	4f'/	.
8B-\)	.	.
(8A-\	(16dd\LL	f
.	16ee-\	.
8B-\J)	16dd\	.
.	16b-\JJ	.
=68	=68	=68
(8G\L	4ee-\	.
8B-\J)	.	.
4E-'\	4gg\)	.
4r	(16fff\LL	p
.	16eee-\	.
.	16ddd\	.
.	16ccc\JJ)	.
=69	=69	=69
4r	(8ccc\L	.
.	8bb-\J)	.
4G\ 4e-\	4bb-\	.
4G\ 4e-\	(16ccc\LL	.
.	16bb-\	.
.	16aa-\	.
.	16gg\JJ)	.
=70	=70	=70
4r	(8gg\L	.
.	8ff\J)	.
(4A-\ 4e-\	4ff\	.
4An\) 4e-\	4ff\	.
=71	=71	=71
*^	*	*
(32e-/LLL	4B-\	(32gg\LLL	f
32f/JJ	.	32aa-\JJ	.
8.g/J)	.	8.bb-\J)	.
4r	4r	4r	.
(16g/LL	4B-\	(16bb-\LL	p
16f/	.	16aa-\	.
16e-/	.	16gg\	.
16d/JJ	.	16ff\JJ	.
*v	*v	*	*
=72	=72	=72
4e-\)	4ee-\)	.
4E-\	4r	.
